public/assets/images/hook.svg

<svg width="250" height="200" viewBox="0 0 250 200" fill="none" xmlns="http://www.w3.org/2000/svg">
<mask id="mask0_705_342" style="mask-type:alpha" maskUnits="userSpaceOnUse" x="0" y="0" width="250" height="250">
<rect width="250" height="250" fill="#D9D9D9"/>
</mask>
<g mask="url(#mask0_705_342)">
<path d="M53.4901 189.187C43.0436 178.74 37.8203 166.055 37.8203 151.132V97.4066L82.5911 142.177L70.0553 154.937L55.7286 140.61V151.132C55.7286 160.981 59.2357 169.413 66.2498 176.427C73.2638 183.441 81.6957 186.948 91.5452 186.948C101.395 186.948 109.827 183.441 116.841 176.427C123.855 169.413 127.362 160.981 127.362 151.132V122.702C121.989 120.613 117.662 117.292 114.378 112.741C111.095 108.189 109.454 103.078 109.454 97.4066C109.454 91.7357 111.095 86.6243 114.378 82.0726C117.662 77.5209 121.989 74.2004 127.362 72.1111V34.7275H145.27V72.1111C150.643 74.2004 154.97 77.5209 158.254 82.0726C161.537 86.6243 163.178 91.7357 163.178 97.4066C163.178 103.078 161.537 108.226 158.254 112.853C154.97 117.479 150.643 120.762 145.27 122.702V151.132C145.27 166.055 140.047 178.74 129.6 189.187C119.154 199.633 106.469 204.856 91.5452 204.856C76.6216 204.856 63.9366 199.633 53.4901 189.187ZM142.696 103.786C144.412 102.07 145.27 99.9436 145.27 97.4066C145.27 94.8696 144.412 92.743 142.696 91.0268C140.98 89.3106 138.853 88.4525 136.316 88.4525C133.779 88.4525 131.652 89.3106 129.936 91.0268C128.22 92.743 127.362 94.8696 127.362 97.4066C127.362 99.9436 128.22 102.07 129.936 103.786C131.652 105.503 133.779 106.361 136.316 106.361C138.853 106.361 140.98 105.503 142.696 103.786Z" fill="#3B3C33"/>
</g>
</svg>

<svg xmlns="http://www.w3.org/2000/svg" width="250" height="200" fill="none" viewBox="0 0 250 200"><mask id="a" width="250" height="250" x="0" y="0" maskUnits="userSpaceOnUse" style="mask-type:alpha"><path fill="#d9d9d9" d="M0 0h250v250H0z"/></mask><g mask="url(#a)"><path fill="#3b3c33" d="M53.49 189.187q-15.67-15.67-15.67-38.055V97.407l44.771 44.77-12.536 12.76L55.73 140.61v10.522q0 14.774 10.52 25.295 10.523 10.521 25.296 10.521 14.775 0 25.296-10.521t10.521-25.295v-28.43q-8.059-3.134-12.984-9.961-4.924-6.828-4.924-15.334t4.924-15.334 12.984-9.962V34.727h17.908v37.384q8.059 3.135 12.984 9.962 4.924 6.827 4.924 15.334t-4.924 15.446q-4.925 6.939-12.984 9.849v28.43q0 22.385-15.67 38.055t-38.055 15.669q-22.385 0-38.055-15.669m89.206-85.401q2.574-2.573 2.574-6.38 0-3.804-2.574-6.38-2.574-2.573-6.38-2.573t-6.38 2.574q-2.574 2.574-2.574 6.38t2.574 6.379q2.574 2.575 6.38 2.575t6.38-2.575"/></g></svg>
